X:1
T:James Gibb editions
T:Saviour, blessed Saviour - Barnby
%%score [ ( 1 2 ) ( 3 4 ) ]
L:1/8
Q:1/4=120
M:4/4
K:D
V:1 treble nm="Midi_74"
V:2 treble 
V:3 bass nm="Midi_74"
V:4 bass 
V:1
"^Godfrey Thring\n(1823-1903)""^Saviour, blessed Saviour""^Joseph Barnby\n(1838-96)""^65. 65. D"!f! d2 c2 e2 d2 x2 | %1
 A4 F4 | E2 FG F2 E2 x4 || D8 | d2 c2 e2 d2 || c4 B4 | e2 dc B3 A || A8 |[M:4/4]!ff! A2 A2 B3 =c | %9
 =c4 B4 || B3 B B2 e2 | ^d8 | e2 e2 c2"^1" A2 |"^rit." (d2 B2) A2 F2 || D2 EF E3 D | D8 || G4 F4 |] %17
V:2
{x} F2 F2 F2 D4 | D4 D2 D2 | D2 C2 D8 || D2 D2 D2 D2 | E4 E4 || E2 FE D2 D2 | C8 || x8 | %8
[M:4/4] A2 A2 B3 =c | =c4 B4 || F3 F E2 G2 | F8 | G2 G2 E2 C2 | D4 (E2 A,2) || B,2 B,2 C3 D | D8 || %16
 D4 D4 |] %17
V:3
{x} A,2 A,2 A,2 F,4 | A,4 B,2 B,2 | A,2 G,2 F,8 || F,2 F,2 F,2 F,2 | ^G,4 G,4 || A,2 A,2 A,2 ^G,2 | %6
 A,8 || x8 |[M:4/4] A,2 A,2 B,3 =C | =C4 B,4 || %10
"^1 Saviour, blessed Saviour, listen while we sing,\nhearts and voices raising praises to our King.\nAll we have we offer, all we hope to do,\nbody, soul, and spirit, all we yield to you.\n\n2 Great and even greater, are your mercies here,\ntrue and everlasting are the glories there,\nwhere no pain or sorrow, toil or care is known,\nwhere the angel legions circle round your throne. \n\n3 Clearer still and clearer, dawns the light from heav'n,\nin our sadness bringing news of sin forgiv'n.\nLife has lost its shadows, pure the light within;\nyou have shed your radiance on a world of sin." ^D3 D E2 B,2 | %11
 B,8 | B,2 B,2 A,2 A,2 | (A,2 G,2) (E,2 F,2) || F,2 G,A, G,3 F, | F,8 || B,4 A,4 |] %17
V:4
{x} D,2 D,2 D,2 D,4 | D,4 G,2 E,2 | A,2 A,,2 D,8 || B,,2 B,,2 B,,2 B,,2 | E,4 (E,2 D,2) || %5
 C,2 D,2 E,2 E,2 | A,,8 || x8 |[M:4/4] A,2 A,2 B,3 =C | =C4 B,4 || B,3 B, G,2 E,2 | B,8 | %12
 G,2 E,2 A,2 G,2 | (F,2 G,2) C,2 D,2 || B,,2 E,2 A,,3 D, | D,8 || G,,4 D,4 |] %17

